X:1
T:THE VIOLET
M:2/4
Q:1/4=120
K:Ab
c4e2c2|B6G2|A2F2c2A2|G8|c4e2c2|B6G2|A2F2c2A2|
G4c4|F2F2A2A2|G2=E2C2C2|d2c2B2AB|c8|F2F2A2A2|
G2=E2C2C2|d2c2B2AB|c7||
